T: My Dungannon Sweetheart
M: 6/8
L: 1/8
K: Dmaj
C2 E Gcd | e3 e2 B | dc/c/c cGE | GFF FDB, |G,B,D GBd | g3 g2 e | fdB GAB |1 cEA GED :||: ee/e/e ecA | G3- GEA | GEA GEA | GFF FEF |fff fdB | GB/c/d g2 e | fdB GAB |1 cEA Gcd :|DDE FAd | f3 fec | edd dAF | A>GG GEC |A,CE Ace | a3 agf | gec A>Bc |1 dFB AFE :|f3 fdB | A3 AFE | AFB AFG | AGG GB/c/d |g3 gec | A>ce a2 f | gec A>Bc |1 dFB A3 :|
